public/assets/icons/crown.svg

<svg xmlns="http://www.w3.org/2000/svg" viewBox="-2 -4 24 24" width="24" height="24" preserveAspectRatio="xMinYMin" class="jam jam-crown"><path d='M2.776 5.106L3.648 11h12.736l.867-5.98-3.493 3.02-3.755-4.827-3.909 4.811-3.318-2.918zm10.038-1.537l-.078.067.141.014 1.167 1.499 1.437-1.242.14.014-.062-.082 2.413-2.086a1 1 0 0 1 1.643.9L18.115 13H1.922L.399 2.7a1 1 0 0 1 1.65-.898L4.35 3.827l-.05.06.109-.008 1.444 1.27 1.212-1.493.109-.009-.06-.052L9.245.976a1 1 0 0 1 1.565.017l2.005 2.576zM2 14h16v1a1 1 0 0 1-1 1H3a1 1 0 0 1-1-1v-1z'/></svg>

<svg xmlns="http://www.w3.org/2000/svg" width="19.237" height="15.393" viewBox="0 0 19.237 15.393">
  <path id="crown" d="M2.776,5.106,3.648,11H16.384l.867-5.98L13.758,8.04,10,3.213,6.094,8.024,2.776,5.106ZM12.814,3.569l-.078.067.141.014,1.167,1.5,1.437-1.242.14.014-.062-.082,2.413-2.086a1,1,0,0,1,1.643.9L18.115,13H1.922L.4,2.7a1,1,0,0,1,1.65-.9l2.3,2.025-.05.06.109-.008,1.444,1.27L7.065,3.656l.109-.009L7.114,3.6,9.245.976A1,1,0,0,1,10.81.993l2.005,2.576ZM2,14H18v1a1,1,0,0,1-1,1H3a1,1,0,0,1-1-1Z" transform="translate(-0.388 -0.607)" fill="#f2f2f2"/>
</svg>
